X:11
T:James Byrne's Mazurka
R:mazurka
H:Similar to #5
D:The Brass Fiddle (James Byrne)
Z:id:hn-mazurka-11
M:3/4
K:D
DF|A<F Ac dc|B<G B2 ef|ge c2 Ac|BA F2 DF|
A<F Ac dc|B<G B2 ef|ge c2 Ag|1 fe d2:|2 fe de fg||
|:af d2 Ad|cA B2 ef|ge c2 B^g|a^g a=g fg|
af d2 Ad|cA B2 ef|ge c2 Ag|1 fe de fg:|2 fe d2||
